src/basic/600/u1F5D9-close.svg

<svg width="18" height="24" viewBox="0 0 18 24" fill="none" xmlns="http://www.w3.org/2000/svg">
<path fill-rule="evenodd" clip-rule="evenodd" d="M9,12.7071l-8.27145,8.2715l-0.70711,-0.7071l8.27145,-8.2715l-8.27146,-8.27143l0.70711,-0.70711l8.27146,8.27144l8.2715,-8.27144l0.7071,0.70711l-8.27149,8.27143l8.27149,8.2715l-0.7072,0.7071z" fill="black"/>
</svg>

<svg width="18" height="24" viewBox="0 0 18 24" fill="none" xmlns="http://www.w3.org/2000/svg">
<path fill-rule="evenodd" clip-rule="evenodd" d="M9 12.7071L0.72855 20.9786L0.0214442 20.2715L8.29289 12L0.0214327 3.72857L0.72854 3.02146L9 11.2929L17.2715 3.02146L17.9786 3.72857L9.70711 12L17.9786 20.2715L17.2714 20.9786L9 12.7071Z" fill="black"/>
</svg>
